X: 16817
T: Harsh February, The
R: reel
M: 4/4
K: Dmajor
|:AG|FABd B2AF|ABdf efde|ffed BddB|ABDD FE~E2|
FABd B2AF|ABdf efde|ffed bafb|1 afef d2:|2 afef defa||
|:bdda bdfe|d2ed fdBA|FABd ABdb|afde fefa|
bdda bdfe|d2ed fdBA|FABd ABdb|1 afef defa:|2 afef d2||

